X: 258
%
U:~=!turn!
U:n=!diminuendo(!
U:p=!diminuendo)!
T: Jenny Bowser
C:James Scott Skinner
O:Scotland
B:Keith Norman MacDonald : "The Skye collection of the best reels & strathspeys extant" : 1887
Z:Ralph Palmer
R:Reel
M:C
L:1/8
K:D
G | FG .A.c Ld2 AF | E/2E/2E BA .BE-E.G | (FG) (Ac) Ld2 (AF) | D/2D/2D (AF) ADD :|
g | nfdepc dAGF | E/2E/2E !p!(BA) BEEg | nfcepc dBAF | D/2D/2D (AF) AD-D.g |
fdec dAGF | E/2E/2E (BA) BE-E.g | Lfa Lgb Laf Lge | nfdec dBpA !D.C.! |]


